X:46
T:Auld Man's from Home, The
M:2/4
L:1/8
B:Thompson's Compleat Collection of 200 Favourite Country Dances, vol. 1 (London, 1757)
Z:Transcribed and edited by Fynnian Titford-Mock, 2007
Z:abc's:AK/Fiddler's Companion
K:G
d2 BG|e2 d2|e/f/ g2 f|g2 G2|b2 ge|a2 fd|e/f/g fe|d2 D2:|
|:d2 D=F|ED E2|e2 EG|FE D2|E/F/G F/G/A|G/A/B A/B/c|G/A/B DF|G2 G,2:|

